static/animations/horse/horse_1.svg

<svg xmlns="http://www.w3.org/2000/svg" version="1.1" xmlns:xlink="http://www.w3.org/1999/xlink" preserveAspectRatio="none" x="0px" y="0px" width="1920px" height="1080px" viewBox="0 0 1920 1080">
<defs>
<g id="Layer0_0_FILL">
<path fill="#120000" stroke="none" d="
M 1235.5 1039.25
Q 1231.7 1031.4 1225.85 1025.15 1221.25 1020.15 1217 1019.25 1213.8 1018.55 1210.35 1019.75 1207.15 1020.85 1204.5 1023.3 1202.3 1025.25 1200 1028.4 1199.1 1029.65 1196.25 1034.1 1191.4 1041.8 1185.1 1049.9 1182.3 1053.55 1176.75 1060.25 1170.55 1067.8 1166.35 1072.55 1170.95 1070.8 1175.4 1067.45 1178.65 1064.9 1182.3 1061.2 1192.25 1051.05 1199.5 1039.05 1202.35 1034.35 1204.05 1032.7 1205.55 1031.3 1207.35 1030.65 1209.35 1029.9 1211.15 1030.25 1213.65 1030.75 1216.75 1033.95 1223.95 1041.5 1228.05 1050.7 1232.35 1060.4 1232.3 1070.2 1232.2 1081.6 1226.65 1090.25 1224.05 1094.25 1219.65 1098.4 1214.4 1103.3 1209.9 1105.4 1204 1108.25 1194.55 1108.7 1185.65 1109.15 1180.35 1106.6 1181.05 1110.4 1183.55 1113.5 1186.05 1116.6 1189.6 1118.1 1196.3 1120.9 1204.25 1118 1209.95 1115.9 1216.95 1110.05 1229.1 1099.85 1234.85 1088.8 1238.85 1081.2 1240.3 1072.6 1241.75 1064.05 1240.5 1055.55 1239.25 1047.1 1235.5 1039.25
M 1038.85 926.2
Q 1026.4 919.1 1015.85 920.55 1010 921.35 1004.55 924.85 999.45 928.15 995.6 933.2 989.2 941.6 985.7 955.45 981.6958984375 971.4666015625 982.8 986.05 978.563671875 982.228125 973.6 979.25 961.55 972 948.7 971.55 936.4 971.1 923.85 977.2 912.7 982.7 902.85 992.55 889.35 1006.05 883.4 1021.6 880.15 1030 879.2 1038.65 878.25 1047.7 879.95 1056.15 881.15 1062.2 883.95 1068.95 885.1572265625 1071.803515625 886.8 1075.15 883.628125 1079.5419921875 881 1084.05 873.35 1097.2 870.85 1110.6 870.191015625 1114.081640625 869.85 1117.65 864.06796875 1119.003515625 855.75 1121.75 841.55 1126.4 833.25 1125.2 824.9 1124 817.8 1117.85 811.1 1112.05 807.4 1103.65 804.15 1096.2 803.1 1086.8 802.25 1079.05 802.9 1069.15 803.3 1062.75 805.95 1060.4 809.8 1057.15 817.35 1059.95 826.25 1063.15 839.3 1072.4 854.65 1083.2 860.65 1086.25 865.7 1088.8 868.55 1087.5 871.3 1086.3 871.65 1082.8 871.95 1079.4 869.9 1076.9 868.15 1074.75 865 1073.35 863 1072.45 859.05 1071.35 860.5 1072.35 860.35 1074.05
L 837.6 1058.3
Q 829.35 1052.6 823.55 1050.5 815.15 1047.5 808.7 1050.3 798 1055 795.55 1074.15 792.85 1094.55 797.95 1109.15 801 1117.85 806.8 1124.45 813 1131.5 821 1134.45 828.05 1137.1 836.4 1136.55 844 1136.05 851.75 1133 858.35 1130.35 865.6 1125.65 867.4228515625 1124.4525390625 869.55 1122.9 869.305078125 1135.1115234375 872.8 1148.3 877.35 1165.6 888.1 1183.6 898.4 1200.9 912.1 1215.75 925.8 1230.65 942.15 1242.35 952.3 1249.6 960.95 1253.1 971.85 1257.6 981.65 1256.75 949.85 1242.35 924.65 1217.2 899.4 1192.05 884.95 1160.3 879.7 1148.9 877.25 1139.15 874.5806640625 1128.5630859375 874.9 1119 876.5544921875 1117.746484375 878.35 1116.35 876.9017578125 1116.382421875 875 1116.65 876.0982421875 1102.12734375 884.3 1087.7 886.55703125 1083.75390625 889.25 1079.9 889.5583984375 1080.46015625 889.85 1081 892.4 1085.7 894.3 1088.35 897.1 1092.15 900.25 1094.35 898.9958984375 1088.165625 893.65 1074.2 898.2638671875 1068.6138671875 903.9 1063.3 927.2 1041.45 959.3 1030.95 975.786328125 1025.5337890625 992.75 1023.7 993.202734375 1025.7439453125 993.5 1027.85 995.35 1040.75 990.65 1053.3 985.9 1066 976 1074.25 966.4 1082.25 956.65 1082.25 951.15 1082.2 946.45 1079.3 941.5 1076.3 939.75 1071.4 938 1074.35 937.75 1077.8 937.5 1081.3 938.75 1084.45 940.05 1087.55 942.65 1089.9 945.3 1092.2 948.55 1093.1 954.45 1094.65 962.4 1091.5 970.05 1088.45 976.8 1082.6 983.1 1077.1 988.05 1069.7 995.4 1059.6 999.05 1048.35 1001.941796875 1039.41484375 1002.2 1030.7 1004.7009765625 1033.202734375 1007.45 1035.35 1006.3677734375 1029.9841796875 1002.75 1022.9 1012.9705078125 1022.4443359375 1023.35 1023.25 1055.05 1025.75 1085.6 1039.8 1087.8458984375 1040.8330078125 1090.05 1041.9 1088.1146484375 1048.7625 1084.35 1054.8 1078.75 1063.7 1070.4 1068.7 1061.25 1074.2 1052.9 1072.8 1048.2 1072 1044.6 1068.95 1040.8 1065.75 1039.85 1061.4 1038 1068.6 1038.8 1073.45 1039.3 1076.6 1040.9 1079.15 1042.65 1081.9 1045.25 1083.25 1049.25 1085.3 1055.4 1084.15 1068.5 1081.65 1080.6 1068.4 1089.65 1058.55 1094.8 1046.65 1095.215625 1045.6919921875 1095.6 1044.7 1113.9154296875 1054.38671875 1130.2 1067.7 1126.4306640625 1071.545703125 1122.65 1072.95 1118.3 1074.65 1115.15 1072.9 1113.2 1071.85 1111.15 1068.55 1108.8 1064.7 1107.6 1063.6 1107.95 1065.55 1107.8 1068.55 1107.55 1073.25 1107.55 1073.5 1107.65 1079.95 1111.25 1082.35 1113.5 1083.85 1116.65 1083.5 1119.3 1083.25 1122.2 1081.75 1128.516796875 1078.548828125 1134.55 1071.35 1136.996484375 1073.4529296875 1139.4 1075.65 1158 1092.65 1168.9 1111.3 1181.45 1132.75 1182.45 1154.4 1183.1 1168.95 1178.45 1184.05 1174.15 1198.15 1165.6 1211.25 1151.15 1233.5 1123.65 1254.15 1100.2 1271.75 1076.25 1281.45 1049.3 1292.35 1023.4 1292.55 980.6 1292.8 933.55 1263.95 937.55 1277.25 950.9 1286.75 962.25 1294.85 978.3 1299 1018.65 1309.4 1062.85 1295.45 1103.95 1282.45 1137.7 1252.2 1165.95 1226.9 1179.2 1198.85 1186.7 1182.9 1189.2 1166.35 1191.8 1148.8 1188.5 1132.6 1184.75 1114.25 1173.15 1096.55 1163 1081.1 1147.15 1066.55 1144.382421875 1064.0076171875 1141.55 1061.55 1148.133984375 1050.99296875 1151.55 1039 1154.45 1029 1154.5 1019.4 1154.55 1008.95 1151.25 1000 1147.65 990.4 1140.3 983.35 1132.65 976 1123.1 973.75 1117.1 972.35 1109.4 972.75 1100 973.3 1095.15 976.8 1091.95 979.05 1090.45 982.65 1090.3626953125 982.857421875 1090.25 983.05 1090.2669921875 983.0318359375 1090.25 983 1085.85 974.8 1079.35 966.1 1074.15 959.15 1066.5 950.55 1059.15 942.3 1053.6 937.25 1046.15 930.4 1038.85 926.2
M 1012.85 928.8
Q 1019.05 928.25 1027.6 932.45 1037.6 937.45 1047.35 946.2 1055.15 953.25 1063.95 963.9 1071.05 972.5 1076 979.85 1081.9 988.75 1085.6 997.25 1092.971484375 1014.33828125 1092 1030.1 1090.8677734375 1029.6072265625 1089.7 1029.1 1057.05 1014.9 1023.2 1013.45 1011.594921875 1012.9498046875 1000.2 1014 997.9771484375 1006.023046875 993.3 998.6 991.7861328125 996.2111328125 990.1 994 988.8955078125 988.613671875 988.45 982.8 987.5 970.15 990.2 956.75 992.45 945.4 997.05 938.8 999.9 934.65 1003.9 932 1008.2 929.2 1012.85 928.8
M 1091.65 983.4
L 1091.75 983.3 1091.65 983.45 1091.65 983.4 1091.6 983.5 1091.55 983.55 1091.65 983.4
M 1091.15 984.75
Q 1091.1828125 984.7244140625 1091.2 984.7 1092.8 982.25 1095.55 981.2 1097.8 980.35 1101 980.2 1101.9 980.15 1106.6 980.3 1108.4 980.35 1112 980.45 1115.05 980.6 1117.3 981 1124.6 982.35 1131.2 987.8 1138.2 993.5 1142.5 1001.95 1146.7 1010.2 1147.45 1019.4 1148.45 1031.55 1143.7 1044.85 1141.127734375 1052.0455078125 1137.4 1058.15 1119.544921875 1043.5931640625 1099.05 1033.45 1100.3318359375 1027.50234375 1100.45 1021.5 1100.784375 1003.5353515625 1091.15 984.75
M 983.8 1004.15
Q 987.646875 1009.48203125 990.05 1015.25 972.573046875 1017.918359375 955.65 1024.3 922.15 1036.95 898.5 1061.35 894.841796875 1065.1111328125 891.6 1068.95 885.8798828125 1054.0392578125 885 1044.8 884.25 1037 885.95 1029.15 887.65 1021.35 891.55 1014.45 896.9 1005.15 908.65 994.85 915.7 988.6 921.35 985.7 931.1 980.75 942.95 981.3 954.25 981.85 964.5 987.2 976 993.3 983.8 1004.15 Z"/>
</g>
</defs>

<g transform="matrix( 1, 0, 0, 1, 0,0) ">
<use xlink:href="#Layer0_0_FILL"/>
</g>
</svg>

<svg xmlns="http://www.w3.org/2000/svg" xmlns:xlink="http://www.w3.org/1999/xlink" preserveAspectRatio="none" width="1920" height="1080"><defs><path fill="#120000" d="M1235.5 1039.25q-3.8-7.85-9.65-14.1-4.6-5-8.85-5.9-3.2-.7-6.65.5-3.2 1.1-5.85 3.55-2.2 1.95-4.5 5.1-.9 1.25-3.75 5.7-4.85 7.7-11.15 15.8-2.8 3.65-8.35 10.35-6.2 7.55-10.4 12.3 4.6-1.75 9.05-5.1 3.25-2.55 6.9-6.25 9.95-10.15 17.2-22.15 2.85-4.7 4.55-6.35 1.5-1.4 3.3-2.05 2-.75 3.8-.4 2.5.5 5.6 3.7 7.2 7.55 11.3 16.75 4.3 9.7 4.25 19.5-.1 11.4-5.65 20.05-2.6 4-7 8.15-5.25 4.9-9.75 7-5.9 2.85-15.35 3.3-8.9.45-14.2-2.1.7 3.8 3.2 6.9 2.5 3.1 6.05 4.6 6.7 2.8 14.65-.1 5.7-2.1 12.7-7.95 12.15-10.2 17.9-21.25 4-7.6 5.45-16.2 1.45-8.55.2-17.05-1.25-8.45-5-16.3M1038.85 926.2q-12.45-7.1-23-5.65-5.85.8-11.3 4.3-5.1 3.3-8.95 8.35-6.4 8.4-9.9 22.25-4.004 16.017-2.9 30.6-4.236-3.822-9.2-6.8-12.05-7.25-24.9-7.7-12.3-.45-24.85 5.65-11.15 5.5-21 15.35-13.5 13.5-19.45 29.05-3.25 8.4-4.2 17.05-.95 9.05.75 17.5 1.2 6.05 4 12.8 1.207 2.854 2.85 6.2-3.172 4.392-5.8 8.9-7.65 13.15-10.15 26.55-.659 3.482-1 7.05-5.782 1.354-14.1 4.1-14.2 4.65-22.5 3.45-8.35-1.2-15.45-7.35-6.7-5.8-10.4-14.2-3.25-7.45-4.3-16.85-.85-7.75-.2-17.65.4-6.4 3.05-8.75 3.85-3.25 11.4-.45 8.9 3.2 21.95 12.45 15.35 10.8 21.35 13.85 5.05 2.55 7.9 1.25 2.75-1.2 3.1-4.7.3-3.4-1.75-5.9-1.75-2.15-4.9-3.55-2-.9-5.95-2 1.45 1 1.3 2.7l-22.75-15.75q-8.25-5.7-14.05-7.8-8.4-3-14.85-.2-10.7 4.7-13.15 23.85-2.7 20.4 2.4 35 3.05 8.7 8.85 15.3 6.2 7.05 14.2 10 7.05 2.65 15.4 2.1 7.6-.5 15.35-3.55 6.6-2.65 13.85-7.35 1.823-1.197 3.95-2.75-.245 12.212 3.25 25.4 4.55 17.3 15.3 35.3 10.3 17.3 24 32.15 13.7 14.9 30.05 26.6 10.15 7.25 18.8 10.75 10.9 4.5 20.7 3.65-31.8-14.4-57-39.55-25.25-25.15-39.7-56.9-5.25-11.4-7.7-21.15-2.67-10.587-2.35-20.15 1.654-1.254 3.45-2.65-1.448.032-3.35.3 1.098-14.523 9.3-28.95 2.257-3.946 4.95-7.8.308.56.6 1.1 2.55 4.7 4.45 7.35 2.8 3.8 5.95 6-1.254-6.184-6.6-20.15 4.614-5.586 10.25-10.9 23.3-21.85 55.4-32.35 16.486-5.416 33.45-7.25.453 2.044.75 4.15 1.85 12.9-2.85 25.45-4.75 12.7-14.65 20.95-9.6 8-19.35 8-5.5-.05-10.2-2.95-4.95-3-6.7-7.9-1.75 2.95-2 6.4-.25 3.5 1 6.65 1.3 3.1 3.9 5.45 2.65 2.3 5.9 3.2 5.9 1.55 13.85-1.6 7.65-3.05 14.4-8.9 6.3-5.5 11.25-12.9 7.35-10.1 11-21.35 2.892-8.935 3.15-17.65 2.501 2.503 5.25 4.65-1.082-5.366-4.7-12.45 10.22-.456 20.6.35 31.7 2.5 62.25 16.55 2.246 1.033 4.45 2.1-1.935 6.862-5.7 12.9-5.6 8.9-13.95 13.9-9.15 5.5-17.5 4.1-4.7-.8-8.3-3.85-3.8-3.2-4.75-7.55-1.85 7.2-1.05 12.05.5 3.15 2.1 5.7 1.75 2.75 4.35 4.1 4 2.05 10.15.9 13.1-2.5 25.2-15.75 9.05-9.85 14.2-21.75.416-.958.8-1.95 18.315 9.687 34.6 23-3.77 3.846-7.55 5.25-4.35 1.7-7.5-.05-1.95-1.05-4-4.35-2.35-3.85-3.55-4.95.35 1.95.2 4.95-.25 4.7-.25 4.95.1 6.45 3.7 8.85 2.25 1.5 5.4 1.15 2.65-.25 5.55-1.75 6.317-3.201 12.35-10.4 2.446 2.103 4.85 4.3 18.6 17 29.5 35.65 12.55 21.45 13.55 43.1.65 14.55-4 29.65-4.3 14.1-12.85 27.2-14.45 22.25-41.95 42.9-23.45 17.6-47.4 27.3-26.95 10.9-52.85 11.1-42.8.25-89.85-28.6 4 13.3 17.35 22.8 11.35 8.1 27.4 12.25 40.35 10.4 84.55-3.55 41.1-13 74.85-43.25 28.25-25.3 41.5-53.35 7.5-15.95 10-32.5 2.6-17.55-.7-33.75-3.75-18.35-15.35-36.05-10.15-15.45-26-30-2.768-2.542-5.6-5 6.584-10.557 10-22.55 2.9-10 2.95-19.6.05-10.45-3.25-19.4-3.6-9.6-10.95-16.65-7.65-7.35-17.2-9.6-6-1.4-13.7-1-9.4.55-14.25 4.05-3.2 2.25-4.7 5.85-.087.207-.2.4.017-.018 0-.05-4.4-8.2-10.9-16.9-5.2-6.95-12.85-15.55-7.35-8.25-12.9-13.3-7.45-6.85-14.75-11.05m-26 2.6q6.2-.55 14.75 3.65 10 5 19.75 13.75 7.8 7.05 16.6 17.7 7.1 8.6 12.05 15.95 5.9 8.9 9.6 17.4 7.371 17.088 6.4 32.85l-2.3-1q-32.65-14.2-66.5-15.65-11.605-.5-23 .55-2.223-7.977-6.9-15.4-1.514-2.389-3.2-4.6-1.204-5.386-1.65-11.2-.95-12.65 1.75-26.05 2.25-11.35 6.85-17.95 2.85-4.15 6.85-6.8 4.3-2.8 8.95-3.2m78.8 54.6.1-.1-.1.15v-.05l-.05.1-.05.05.1-.15m-.5 1.35q.033-.026.05-.05 1.6-2.45 4.35-3.5 2.25-.85 5.45-1 .9-.05 5.6.1l5.4.15q3.05.15 5.3.55 7.3 1.35 13.9 6.8 7 5.7 11.3 14.15 4.2 8.25 4.95 17.45 1 12.15-3.75 25.45-2.572 7.196-6.3 13.3-17.855-14.557-38.35-24.7 1.282-5.948 1.4-11.95.334-17.965-9.3-36.75m-107.35 19.4q3.847 5.332 6.25 11.1-17.477 2.668-34.4 9.05-33.5 12.65-57.15 37.05-3.658 3.761-6.9 7.6-5.72-14.91-6.6-24.15-.75-7.8.95-15.65 1.7-7.8 5.6-14.7 5.35-9.3 17.1-19.6 7.05-6.25 12.7-9.15 9.75-4.95 21.6-4.4 11.3.55 21.55 5.9 11.5 6.1 19.3 16.95Z" id="a"/></defs><use xlink:href="#a"/></svg>
